svgs/coop.svg

<svg xmlns="http://www.w3.org/2000/svg" viewBox="0 0 192 192"><path d="m101.504 163.81.445-12.191-3.456-4.045c-4.698-5.5-5.787-8.196-6.31-15.629-.43-6.107 1.414-25.05 2.804-28.808.729-1.971 1.621 10.23 1.627 22.257.003 6.884.211 8.385 1.159 8.385 1.56 0 1.796-1.562 2.36-15.6.686-17.101 1.512-20.073 2.188-7.872.295 5.322.537 12.616.537 16.209 0 5.27.241 6.625 1.248 7.011 2.126.816 2.624-1.34 2.737-11.838.059-5.577.341-12.597.625-15.6l.517-5.46.535 6.63c.294 3.647.808 11.015 1.141 16.373.521 8.375.798 9.78 1.972 10.002 1.247.237 1.372-.738 1.449-11.303.047-6.359.31-13.668.585-16.242l.501-4.68 1.419 7.41c.879 4.59 1.472 11.566 1.557 18.33.154 12.263-.236 13.581-5.811 19.677-1.658 1.814-3.076 3.745-3.149 4.29-.074.546-.162 6.258-.195 12.693l-.061 11.7-3.435.245-3.434.246.445-12.19Zm49.085-7.996c-7.543-10.685-15.241-39.342-13.465-50.125.941-5.711 2.01-8.31 3.818-9.277 2.996-1.604 3.321-.831 15.041 35.807 2.951 9.223 5.367 17.354 5.369 18.069.005 1.215-7.253 7.671-8.624 7.671-.343 0-1.306-.965-2.139-2.145Zm-25.111-108.29v-7.475l-3.08 2.439c-4.584 3.63-9.292 4.975-15.908 4.543-6.006-.392-10.563-2.23-13.598-5.483l-1.776-1.903-2.674 2.522c-5.313 5.011-15.228 6.468-23.344 3.432-4.036-1.51-4.42-1.528-6.75-.323-1.36.703-4.993 1.468-8.074 1.702-14.565 1.101-23.859-7.16-21.341-18.968C30.438 20.954 38.098 16 47.501 16c3.643 0 8.799 1.038 9.998 2.012.149.121-.728 1.473-1.95 3.004-1.98 2.482-2.618 2.784-5.889 2.784-4.874 0-7.303 1.22-8.828 4.435-1.645 3.466-.92 6.667 2.083 9.194 1.909 1.606 3.163 1.969 6.768 1.959 2.434-.007 4.776-.27 5.205-.585.429-.315.78-3.408.78-6.874 0-5.656.217-6.585 2.124-9.085 6.239-8.18 22.846-9.171 30.632-1.828l2.692 2.539 1.776-1.904c7.942-8.512 26.801-7.036 32.446 2.539.911 1.545.928 1.545 1.829.033 3.332-5.595 10.775-8.657 19.522-8.031 11.529.825 18.872 9.488 16.261 19.185-1.081 4.017-4.01 7.513-8.126 9.702-2.616 1.39-4.601 1.725-10.627 1.791l-7.41.082-.235 4.024-.236 4.024h-10.838Zm-46.662-9.58c2.216-1.981 2.502-2.705 2.502-6.344 0-3.64-.286-4.364-2.502-6.344-3.983-3.558-9.184-2.608-11.41 2.085-1.526 3.214-1.525 5.306.003 8.525 2.236 4.712 7.404 5.654 11.407 2.078Zm34.242-.044c1.93-1.93 2.28-2.897 2.28-6.3s-.35-4.37-2.28-6.3c-5.994-5.993-14.458.725-11.855 9.41 1.668 5.568 7.821 7.224 11.855 3.19Zm35.048 1.105c1.548-.8 2.569-2.166 3.205-4.29 2.603-8.69-5.858-15.411-11.854-9.415-1.93 1.93-2.28 2.897-2.28 6.3s.35 4.37 2.28 6.3c2.563 2.562 5.184 2.897 8.649 1.105Z"/></svg>

<svg
    xmlns="http://www.w3.org/2000/svg"
    viewBox="0 0 192 192"
    id="vector">
    <g id="group">
        <path
            id="path_6"
            d="M 101.504 163.81 L 101.949 151.619 L 98.493 147.574 C 93.795 142.074 92.706 139.378 92.183 131.945 C 91.753 125.838 93.597 106.895 94.987 103.137 C 95.716 101.166 96.608 113.367 96.614 125.394 C 96.617 132.278 96.825 133.779 97.773 133.779 C 99.333 133.779 99.569 132.217 100.133 118.179 C 100.819 101.078 101.645 98.106 102.321 110.307 C 102.616 115.629 102.858 122.923 102.858 126.516 C 102.858 131.786 103.099 133.141 104.106 133.527 C 106.232 134.343 106.73 132.187 106.843 121.689 C 106.902 116.112 107.184 109.092 107.468 106.089 L 107.985 100.629 L 108.52 107.259 C 108.814 110.906 109.328 118.274 109.661 123.632 C 110.182 132.007 110.459 133.412 111.633 133.634 C 112.88 133.871 113.005 132.896 113.082 122.331 C 113.129 115.972 113.392 108.663 113.667 106.089 L 114.168 101.409 L 115.587 108.819 C 116.466 113.409 117.059 120.385 117.144 127.149 C 117.298 139.412 116.908 140.73 111.333 146.826 C 109.675 148.64 108.257 150.571 108.184 151.116 C 108.11 151.662 108.022 157.374 107.989 163.809 L 107.928 175.509 L 104.493 175.754 L 101.059 176 L 101.504 163.81 Z M 150.589 155.814 C 143.046 145.129 135.348 116.472 137.124 105.689 C 138.065 99.978 139.134 97.379 140.942 96.412 C 143.938 94.808 144.263 95.581 155.983 132.219 C 158.934 141.442 161.35 149.573 161.352 150.288 C 161.357 151.503 154.099 157.959 152.728 157.959 C 152.385 157.959 151.422 156.994 150.589 155.814 Z M 125.478 47.524 L 125.478 40.049 L 122.398 42.488 C 117.814 46.118 113.106 47.463 106.49 47.031 C 100.484 46.639 95.927 44.801 92.892 41.548 L 91.116 39.645 L 88.442 42.167 C 83.129 47.178 73.214 48.635 65.098 45.599 C 61.062 44.089 60.678 44.071 58.348 45.276 C 56.988 45.979 53.355 46.744 50.274 46.978 C 35.709 48.079 26.415 39.818 28.933 28.01 C 30.438 20.954 38.098 16 47.501 16 C 51.144 16 56.3 17.038 57.499 18.012 C 57.648 18.133 56.771 19.485 55.549 21.016 C 53.569 23.498 52.931 23.8 49.66 23.8 C 44.786 23.8 42.357 25.02 40.832 28.235 C 39.187 31.701 39.912 34.902 42.915 37.429 C 44.824 39.035 46.078 39.398 49.683 39.388 C 52.117 39.381 54.459 39.118 54.888 38.803 C 55.317 38.488 55.668 35.395 55.668 31.929 C 55.668 26.273 55.885 25.344 57.792 22.844 C 64.031 14.664 80.638 13.673 88.424 21.016 L 91.116 23.555 L 92.892 21.651 C 100.834 13.139 119.693 14.615 125.338 24.19 C 126.249 25.735 126.266 25.735 127.167 24.223 C 130.499 18.628 137.942 15.566 146.689 16.192 C 158.218 17.017 165.561 25.68 162.95 35.377 C 161.869 39.394 158.94 42.89 154.824 45.079 C 152.208 46.469 150.223 46.804 144.197 46.87 L 136.787 46.952 L 136.552 50.976 L 136.316 55 L 125.478 55 Z M 78.816 37.944 C 81.032 35.963 81.318 35.239 81.318 31.6 C 81.318 27.96 81.032 27.236 78.816 25.256 C 74.833 21.698 69.632 22.648 67.406 27.341 C 65.88 30.555 65.881 32.647 67.409 35.866 C 69.645 40.578 74.813 41.52 78.816 37.944 Z M 113.058 37.9 C 114.988 35.97 115.338 35.003 115.338 31.6 C 115.338 28.197 114.988 27.23 113.058 25.3 C 107.064 19.307 98.6 26.025 101.203 34.71 C 102.871 40.278 109.024 41.934 113.058 37.9 Z M 148.106 39.005 C 149.654 38.205 150.675 36.839 151.311 34.715 C 153.914 26.025 145.453 19.304 139.457 25.3 C 137.527 27.23 137.177 28.197 137.177 31.6 C 137.177 35.003 137.527 35.97 139.457 37.9 C 142.02 40.462 144.641 40.797 148.106 39.005 Z"
            fill="#000000"
            stroke-width="12"/>
    </g>
</svg>
